dist/images/ico/ico_sprites_02.svg

<svg width="618" height="48" viewBox="0 0 618 48" fill="none" xmlns="http://www.w3.org/2000/svg">
<path d="M24 15C19.032 15 15 19.032 15 24C15 28.968 19.032 33 24 33C28.968 33 33 28.968 33 24C33 19.032 28.968 15 24 15ZM21.561 27.861L18.33 24.63C17.979 24.279 17.979 23.712 18.33 23.361C18.681 23.01 19.248 23.01 19.599 23.361L22.2 25.953L28.392 19.761C28.743 19.41 29.31 19.41 29.661 19.761C30.012 20.112 30.012 20.679 29.661 21.03L22.83 27.861C22.488 28.212 21.912 28.212 21.561 27.861Z" fill="#2F7AD3"/>
<path d="M62 15C57.032 15 53 19.032 53 24C53 28.968 57.032 33 62 33C66.968 33 71 28.968 71 24C71 19.032 66.968 15 62 15ZM59.561 27.861L56.33 24.63C55.979 24.279 55.979 23.712 56.33 23.361C56.681 23.01 57.248 23.01 57.599 23.361L60.2 25.953L66.392 19.761C66.743 19.41 67.31 19.41 67.661 19.761C68.012 20.112 68.012 20.679 67.661 21.03L60.83 27.861C60.488 28.212 59.912 28.212 59.561 27.861Z" fill="#FF6859"/>
<path d="M100 15C95.032 15 91 19.032 91 24C91 28.968 95.032 33 100 33C104.968 33 109 28.968 109 24C109 19.032 104.968 15 100 15ZM97.561 27.861L94.33 24.63C93.979 24.279 93.979 23.712 94.33 23.361C94.681 23.01 95.248 23.01 95.599 23.361L98.2 25.953L104.392 19.761C104.743 19.41 105.31 19.41 105.661 19.761C106.012 20.112 106.012 20.679 105.661 21.03L98.83 27.861C98.488 28.212 97.912 28.212 97.561 27.861Z" fill="#D2D2D1"/>
<path d="M138 15C133.032 15 129 19.032 129 24C129 28.968 133.032 33 138 33C142.968 33 147 28.968 147 24C147 19.032 142.968 15 138 15ZM135.561 27.861L132.33 24.63C131.979 24.279 131.979 23.712 132.33 23.361C132.681 23.01 133.248 23.01 133.599 23.361L136.2 25.953L142.392 19.761C142.743 19.41 143.31 19.41 143.661 19.761C144.012 20.112 144.012 20.679 143.661 21.03L136.83 27.861C136.488 28.212 135.912 28.212 135.561 27.861Z" fill="#253981"/>
<path d="M178.733 20.5324L175.198 24.0045L178.733 27.4765C179.089 27.8255 179.089 28.3893 178.733 28.7383C178.378 29.0872 177.804 29.0872 177.449 28.7383L173.267 24.6309C172.911 24.2819 172.911 23.7181 173.267 23.3691L177.449 19.2617C177.804 18.9128 178.378 18.9128 178.733 19.2617C179.08 19.6107 179.089 20.1834 178.733 20.5324Z" fill="#2F7AD3"/>
<path d="M211.267 27.4676L214.802 23.9955L211.267 20.5235C210.911 20.1745 210.911 19.6107 211.267 19.2617C211.622 18.9128 212.196 18.9128 212.551 19.2617L216.733 23.3691C217.089 23.7181 217.089 24.2819 216.733 24.6309L212.551 28.7383C212.196 29.0872 211.622 29.0872 211.267 28.7383C210.92 28.3893 210.911 27.8166 211.267 27.4676Z" fill="#2F7AD3"/>
<path d="M254.733 20.5324L251.198 24.0045L254.733 27.4765C255.089 27.8255 255.089 28.3893 254.733 28.7383C254.378 29.0872 253.804 29.0872 253.449 28.7383L249.267 24.6309C248.911 24.2819 248.911 23.7181 249.267 23.3691L253.449 19.2617C253.804 18.9128 254.378 18.9128 254.733 19.2617C255.08 19.6107 255.089 20.1834 254.733 20.5324Z" fill="#A4A4A4"/>
<path d="M287.267 27.4676L290.802 23.9955L287.267 20.5235C286.911 20.1745 286.911 19.6107 287.267 19.2617C287.622 18.9128 288.196 18.9128 288.551 19.2617L292.733 23.3691C293.089 23.7181 293.089 24.2819 292.733 24.6309L288.551 28.7383C288.196 29.0872 287.622 29.0872 287.267 28.7383C286.92 28.3893 286.911 27.8166 287.267 27.4676Z" fill="#A4A4A4"/>
<path d="M331.889 16C331.461 16 331.111 16.36 331.111 16.8V17.6H324.889V16.8C324.889 16.36 324.539 16 324.111 16C323.683 16 323.333 16.36 323.333 16.8V17.6H322.556C321.692 17.6 321.008 18.32 321.008 19.2L321 30.4C321 31.28 321.692 32 322.556 32H333.444C334.3 32 335 31.28 335 30.4V19.2C335 18.32 334.3 17.6 333.444 17.6H332.667V16.8C332.667 16.36 332.317 16 331.889 16ZM333.444 30.4H322.556V22.4H333.444V30.4ZM327.222 24.8C327.222 24.36 327.572 24 328 24C328.428 24 328.778 24.36 328.778 24.8C328.778 25.24 328.428 25.6 328 25.6C327.572 25.6 327.222 25.24 327.222 24.8ZM324.111 24.8C324.111 24.36 324.461 24 324.889 24C325.317 24 325.667 24.36 325.667 24.8C325.667 25.24 325.317 25.6 324.889 25.6C324.461 25.6 324.111 25.24 324.111 24.8ZM330.333 24.8C330.333 24.36 330.683 24 331.111 24C331.539 24 331.889 24.36 331.889 24.8C331.889 25.24 331.539 25.6 331.111 25.6C330.683 25.6 330.333 25.24 330.333 24.8ZM327.222 28C327.222 27.56 327.572 27.2 328 27.2C328.428 27.2 328.778 27.56 328.778 28C328.778 28.44 328.428 28.8 328 28.8C327.572 28.8 327.222 28.44 327.222 28ZM324.111 28C324.111 27.56 324.461 27.2 324.889 27.2C325.317 27.2 325.667 27.56 325.667 28C325.667 28.44 325.317 28.8 324.889 28.8C324.461 28.8 324.111 28.44 324.111 28ZM330.333 28C330.333 27.56 330.683 27.2 331.111 27.2C331.539 27.2 331.889 27.56 331.889 28C331.889 28.44 331.539 28.8 331.111 28.8C330.683 28.8 330.333 28.44 330.333 28Z" fill="#A4A4A4"/>
<path d="M365.992 16C361.576 16 358 19.584 358 24C358 28.416 361.576 32 365.992 32C370.416 32 374 28.416 374 24C374 19.584 370.416 16 365.992 16ZM366 30.4C362.464 30.4 359.6 27.536 359.6 24C359.6 20.464 362.464 17.6 366 17.6C369.536 17.6 372.4 20.464 372.4 24C372.4 27.536 369.536 30.4 366 30.4ZM365.824 20H365.776C365.456 20 365.2 20.256 365.2 20.576V24.352C365.2 24.632 365.344 24.896 365.592 25.04L368.912 27.032C369.184 27.192 369.536 27.112 369.696 26.84C369.864 26.568 369.776 26.208 369.496 26.048L366.4 24.208V20.576C366.4 20.256 366.144 20 365.824 20Z" fill="#A4A4A4"/>
<path d="M407.732 26.3182H406.991L406.728 26.065C407.854 24.7518 408.436 22.9603 408.117 21.0562C407.676 18.4487 405.498 16.3664 402.871 16.0475C398.901 15.5597 395.559 18.8989 396.048 22.8665C396.367 25.4928 398.45 27.6689 401.059 28.1098C402.964 28.4287 404.757 27.8471 406.071 26.7216L406.324 26.9842V27.7252L410.313 31.7116C410.698 32.0961 411.327 32.0961 411.711 31.7116C412.096 31.327 412.096 30.6986 411.711 30.314L407.732 26.3182ZM402.101 26.3182C399.764 26.3182 397.878 24.4329 397.878 22.0974C397.878 19.7618 399.764 17.8765 402.101 17.8765C404.438 17.8765 406.324 19.7618 406.324 22.0974C406.324 24.4329 404.438 26.3182 402.101 26.3182Z" fill="#A4A4A4"/>
<path d="M447.734 18.2753C447.379 17.9204 446.805 17.9204 446.451 18.2753L442 22.7167L437.549 18.2662C437.195 17.9113 436.621 17.9113 436.266 18.2662C435.911 18.6212 435.911 19.1945 436.266 19.5495L440.717 24L436.266 28.4505C435.911 28.8055 435.911 29.3788 436.266 29.7338C436.621 30.0887 437.195 30.0887 437.549 29.7338L442 25.2833L446.451 29.7338C446.805 30.0887 447.379 30.0887 447.734 29.7338C448.089 29.3788 448.089 28.8055 447.734 28.4505L443.283 24L447.734 19.5495C448.08 19.2036 448.08 18.6212 447.734 18.2753Z" fill="#A4A4A4"/>
<path d="M480 18C476.688 18 474 20.688 474 24C474 27.312 476.688 30 480 30C483.312 30 486 27.312 486 24C486 20.688 483.312 18 480 18ZM480 28.8C477.354 28.8 475.2 26.646 475.2 24C475.2 21.354 477.354 19.2 480 19.2C482.646 19.2 484.8 21.354 484.8 24C484.8 26.646 482.646 28.8 480 28.8ZM479.4 26.4H480.6V27.6H479.4V26.4ZM480.366 20.424C479.13 20.244 478.038 21.006 477.708 22.098C477.6 22.446 477.864 22.8 478.23 22.8H478.35C478.596 22.8 478.794 22.626 478.878 22.398C479.07 21.864 479.64 21.498 480.258 21.63C480.828 21.75 481.248 22.308 481.2 22.89C481.14 23.694 480.228 23.868 479.73 24.618C479.73 24.624 479.724 24.624 479.724 24.63C479.718 24.642 479.712 24.648 479.706 24.66C479.652 24.75 479.598 24.852 479.556 24.96C479.55 24.978 479.538 24.99 479.532 25.008C479.526 25.02 479.526 25.032 479.52 25.05C479.448 25.254 479.4 25.5 479.4 25.8H480.6C480.6 25.548 480.666 25.338 480.768 25.158C480.78 25.14 480.786 25.122 480.798 25.104C480.846 25.02 480.906 24.942 480.966 24.87C480.972 24.864 480.978 24.852 480.984 24.846C481.044 24.774 481.11 24.708 481.182 24.642C481.758 24.096 482.538 23.652 482.376 22.506C482.232 21.462 481.41 20.58 480.366 20.424Z" fill="#2F7AD3"/>
<path d="M514 19.81V28.19C514 28.829 514.686 29.2173 515.214 28.8694L521.633 24.6795C522.122 24.364 522.122 23.636 521.633 23.3125L515.214 19.1306C514.686 18.7827 514 19.171 514 19.81Z" fill="#253981"/>
<path d="M560.236 19.7644C559.012 18.5421 557.278 17.8372 555.371 18.0322C552.615 18.3096 550.348 20.5442 550.04 23.2962C549.627 26.9331 552.443 30 555.994 30C558.389 30 560.446 28.5978 561.407 26.5806C561.647 26.0782 561.287 25.5008 560.731 25.5008C560.453 25.5008 560.191 25.6508 560.071 25.8982C559.222 27.7204 557.188 28.8752 554.965 28.3803C553.299 28.0129 551.955 26.6556 551.602 24.9909C550.971 22.0814 553.186 19.5019 555.994 19.5019C557.24 19.5019 558.351 20.0193 559.162 20.8367L558.028 21.969C557.555 22.4414 557.886 23.2512 558.554 23.2512H561.249C561.662 23.2512 562 22.9138 562 22.5014V19.8094C562 19.142 561.189 18.8045 560.716 19.277L560.236 19.7644Z" fill="#A4A4A4"/>
<path d="M594 16C589.584 16 586 19.584 586 24C586 28.416 589.584 32 594 32C598.416 32 602 28.416 602 24C602 19.584 598.416 16 594 16ZM597.2 24.8H594.8V27.2C594.8 27.64 594.44 28 594 28C593.56 28 593.2 27.64 593.2 27.2V24.8H590.8C590.36 24.8 590 24.44 590 24C590 23.56 590.36 23.2 590.8 23.2H593.2V20.8C593.2 20.36 593.56 20 594 20C594.44 20 594.8 20.36 594.8 20.8V23.2H597.2C597.64 23.2 598 23.56 598 24C598 24.44 597.64 24.8 597.2 24.8Z" fill="#A4A4A4"/>
</svg>

<svg width="618" height="48" fill="none" xmlns="http://www.w3.org/2000/svg"><path d="M24 15c-4.968 0-9 4.032-9 9s4.032 9 9 9 9-4.032 9-9-4.032-9-9-9zm-2.439 12.861L18.33 24.63a.896.896 0 111.269-1.269l2.601 2.592 6.192-6.192a.896.896 0 111.269 1.269l-6.831 6.831a.896.896 0 01-1.269 0z" fill="#2F7AD3"/><path d="M62 15c-4.968 0-9 4.032-9 9s4.032 9 9 9 9-4.032 9-9-4.032-9-9-9zm-2.439 12.861L56.33 24.63a.896.896 0 111.269-1.269l2.601 2.592 6.192-6.192a.896.896 0 111.269 1.269l-6.831 6.831a.896.896 0 01-1.269 0z" fill="#FF6859"/><path d="M100 15c-4.968 0-9 4.032-9 9s4.032 9 9 9 9-4.032 9-9-4.032-9-9-9zm-2.439 12.861L94.33 24.63a.896.896 0 111.269-1.269l2.601 2.592 6.192-6.192a.896.896 0 111.269 1.269l-6.831 6.831a.896.896 0 01-1.269 0z" fill="#D2D2D1"/><path d="M138 15c-4.968 0-9 4.032-9 9s4.032 9 9 9 9-4.032 9-9-4.032-9-9-9zm-2.439 12.861l-3.231-3.231a.896.896 0 111.269-1.269l2.601 2.592 6.192-6.192a.896.896 0 111.269 1.269l-6.831 6.831a.896.896 0 01-1.269 0z" fill="#253981"/><path d="M178.733 20.532l-3.535 3.473 3.535 3.472a.879.879 0 010 1.261.918.918 0 01-1.284 0l-4.182-4.107a.879.879 0 010-1.262l4.182-4.107a.918.918 0 011.284 0 .897.897 0 010 1.27zm32.534 6.936l3.535-3.473-3.535-3.472a.879.879 0 010-1.261.918.918 0 011.284 0l4.182 4.107a.879.879 0 010 1.262l-4.182 4.107a.918.918 0 01-1.284 0 .897.897 0 010-1.27z" fill="#2F7AD3"/><path d="M254.733 20.532l-3.535 3.473 3.535 3.472a.879.879 0 010 1.261.918.918 0 01-1.284 0l-4.182-4.107a.879.879 0 010-1.262l4.182-4.107a.918.918 0 011.284 0 .897.897 0 010 1.27zm32.534 6.936l3.535-3.473-3.535-3.472a.879.879 0 010-1.261.918.918 0 011.284 0l4.182 4.107a.879.879 0 010 1.262l-4.182 4.107a.918.918 0 01-1.284 0 .897.897 0 010-1.27zM331.889 16a.791.791 0 00-.778.8v.8h-6.222v-.8c0-.44-.35-.8-.778-.8a.791.791 0 00-.778.8v.8h-.777c-.864 0-1.548.72-1.548 1.6L321 30.4c0 .88.692 1.6 1.556 1.6h10.888c.856 0 1.556-.72 1.556-1.6V19.2c0-.88-.7-1.6-1.556-1.6h-.777v-.8c0-.44-.35-.8-.778-.8zm1.555 14.4h-10.888v-8h10.888v8zm-6.222-5.6c0-.44.35-.8.778-.8.428 0 .778.36.778.8 0 .44-.35.8-.778.8a.791.791 0 01-.778-.8zm-3.111 0c0-.44.35-.8.778-.8.428 0 .778.36.778.8 0 .44-.35.8-.778.8a.791.791 0 01-.778-.8zm6.222 0c0-.44.35-.8.778-.8.428 0 .778.36.778.8 0 .44-.35.8-.778.8a.791.791 0 01-.778-.8zm-3.111 3.2c0-.44.35-.8.778-.8.428 0 .778.36.778.8 0 .44-.35.8-.778.8a.791.791 0 01-.778-.8zm-3.111 0c0-.44.35-.8.778-.8.428 0 .778.36.778.8 0 .44-.35.8-.778.8a.791.791 0 01-.778-.8zm6.222 0c0-.44.35-.8.778-.8.428 0 .778.36.778.8 0 .44-.35.8-.778.8a.791.791 0 01-.778-.8zm35.659-12c-4.416 0-7.992 3.584-7.992 8s3.576 8 7.992 8c4.424 0 8.008-3.584 8.008-8s-3.584-8-8.008-8zM366 30.4a6.398 6.398 0 01-6.4-6.4c0-3.536 2.864-6.4 6.4-6.4 3.536 0 6.4 2.864 6.4 6.4 0 3.536-2.864 6.4-6.4 6.4zm-.176-10.4h-.048a.574.574 0 00-.576.576v3.776c0 .28.144.544.392.688l3.32 1.992a.57.57 0 00.784-.192.568.568 0 00-.2-.792l-3.096-1.84v-3.632a.574.574 0 00-.576-.576zm41.908 6.318h-.741l-.263-.253a6.096 6.096 0 001.389-5.009c-.441-2.607-2.619-4.69-5.246-5.009a6.103 6.103 0 00-6.823 6.82c.319 2.626 2.402 4.802 5.011 5.243a6.104 6.104 0 005.012-1.388l.253.262v.741l3.989 3.987a.991.991 0 001.398 0 .99.99 0 000-1.398l-3.979-3.996zm-5.631 0a4.216 4.216 0 01-4.223-4.22 4.216 4.216 0 014.223-4.221 4.216 4.216 0 014.223 4.22 4.216 4.216 0 01-4.223 4.221zm45.633-8.043a.906.906 0 00-1.283 0L442 22.717l-4.451-4.45a.906.906 0 10-1.283 1.282L440.717 24l-4.451 4.45a.906.906 0 101.283 1.284l4.451-4.45 4.451 4.45a.906.906 0 101.283-1.284L443.283 24l4.451-4.45a.912.912 0 000-1.275z" fill="#A4A4A4"/><path d="M480 18c-3.312 0-6 2.688-6 6s2.688 6 6 6 6-2.688 6-6-2.688-6-6-6zm0 10.8a4.806 4.806 0 01-4.8-4.8c0-2.646 2.154-4.8 4.8-4.8s4.8 2.154 4.8 4.8-2.154 4.8-4.8 4.8zm-.6-2.4h1.2v1.2h-1.2v-1.2zm.966-5.976a2.401 2.401 0 00-2.658 1.674.544.544 0 00.522.702h.12c.246 0 .444-.174.528-.402.192-.534.762-.9 1.38-.768.57.12.99.678.942 1.26-.06.804-.972.978-1.47 1.728 0 .006-.006.006-.006.012-.006.012-.012.018-.018.03-.054.09-.108.192-.15.3-.006.018-.018.03-.024.048-.006.012-.006.024-.012.042a2.23 2.23 0 00-.12.75h1.2c0-.252.066-.462.168-.642.012-.018.018-.036.03-.054.048-.084.108-.162.168-.234.006-.006.012-.018.018-.024.06-.072.126-.138.198-.204.576-.546 1.356-.99 1.194-2.136-.144-1.044-.966-1.926-2.01-2.082z" fill="#2F7AD3"/><path d="M514 19.81v8.38c0 .639.686 1.027 1.214.68l6.419-4.19a.82.82 0 000-1.367l-6.419-4.182c-.528-.348-1.214.04-1.214.679z" fill="#253981"/><path d="M560.236 19.764a5.973 5.973 0 00-4.865-1.732c-2.756.278-5.023 2.512-5.331 5.264A5.99 5.99 0 00555.994 30a5.991 5.991 0 005.413-3.42.751.751 0 00-.676-1.08.73.73 0 00-.66.398 4.503 4.503 0 01-5.106 2.482 4.463 4.463 0 01-3.363-3.39 4.502 4.502 0 014.392-5.488c1.246 0 2.357.517 3.168 1.335l-1.134 1.132c-.473.472-.142 1.282.526 1.282h2.695a.753.753 0 00.751-.75V19.81c0-.667-.811-1.005-1.284-.532l-.48.487zM594 16c-4.416 0-8 3.584-8 8s3.584 8 8 8 8-3.584 8-8-3.584-8-8-8zm3.2 8.8h-2.4v2.4c0 .44-.36.8-.8.8-.44 0-.8-.36-.8-.8v-2.4h-2.4c-.44 0-.8-.36-.8-.8 0-.44.36-.8.8-.8h2.4v-2.4c0-.44.36-.8.8-.8.44 0 .8.36.8.8v2.4h2.4c.44 0 .8.36.8.8 0 .44-.36.8-.8.8z" fill="#A4A4A4"/></svg>
